dist/assets/img/solution-3.svg

<svg width="167" height="176" viewBox="0 0 167 176" fill="none" xmlns="http://www.w3.org/2000/svg">
<path d="M86.1659 170.237C85.9432 170.237 85.7205 170.139 85.5721 169.963C85.3123 169.689 85.2567 169.278 85.4237 168.926L120.624 96.2385C120.698 96.0625 120.828 95.9256 120.995 95.8474L154.747 77.9736C154.988 77.8367 155.267 77.8563 155.508 77.9736C155.749 78.1105 155.916 78.3452 155.953 78.6189L164.118 129.033C164.173 129.424 163.988 129.815 163.654 129.972L86.537 170.1C86.4257 170.198 86.2958 170.237 86.1659 170.237ZM121.997 97.3336L88.0772 167.362L162.355 128.701L154.487 80.1247L121.997 97.3336Z" fill="white"/>
<path d="M48.8879 152.871C48.7209 152.871 48.5538 152.813 48.4054 152.715L4.07615 119.823C3.79782 119.627 3.66792 119.275 3.72359 118.923L21.6482 17.7425C21.7039 17.4296 21.9267 17.1558 22.2235 17.0581C22.5204 16.9603 22.8358 17.0385 23.077 17.2732L84.9599 80.1638C85.2382 80.4376 85.2938 80.8678 85.1268 81.2198L49.63 152.383C49.5187 152.617 49.3146 152.774 49.0734 152.832C49.0177 152.852 48.9435 152.871 48.8879 152.871ZM5.48639 118.688L48.5723 150.662L83.3084 80.9852L23.0028 19.6981L5.48639 118.688Z" fill="white"/>
<path d="M121.366 97.5487C121.236 97.5487 121.087 97.5096 120.958 97.4314L98.6724 84.5247L84.199 81.6892C83.7352 81.5914 83.4383 81.1416 83.5311 80.6527C83.6238 80.1638 84.0691 79.8314 84.5145 79.9487L99.1177 82.8234C99.2104 82.843 99.2847 82.8821 99.3775 82.9212L121.774 95.9061C122.182 96.1407 122.331 96.6883 122.108 97.1185C121.96 97.3923 121.663 97.5487 121.366 97.5487Z" fill="white"/>
<path d="M86.1659 170.237C85.9618 170.237 85.7763 170.158 85.6093 170.022L65.5508 151.874L48.925 152.871C48.424 152.93 48.0714 152.519 48.0343 152.03C48.0158 151.542 48.3683 151.111 48.8322 151.092L65.792 150.075C65.9776 150.055 66.2188 150.134 66.3858 150.29L86.7042 168.672C87.0567 168.985 87.0938 169.552 86.7969 169.924C86.6299 170.139 86.4071 170.237 86.1659 170.237Z" fill="white"/>
<path d="M65.8476 151.855C65.7177 151.855 65.5879 151.815 65.458 151.757C65.0498 151.522 64.8828 150.994 65.1054 150.564L98.2271 83.2732C98.3198 83.0972 98.4682 82.9407 98.6538 82.8625L131.293 68.1958C131.72 68.0003 132.221 68.2154 132.406 68.6652C132.592 69.1149 132.388 69.6429 131.961 69.8385L99.6001 84.3878L66.627 151.385C66.4414 151.678 66.1445 151.855 65.8476 151.855Z" fill="white"/>
<path d="M155.137 79.6749C155.026 79.6749 154.933 79.6554 154.822 79.6163L131.293 69.8385C131.219 69.7994 131.163 69.7603 131.089 69.7212L52.9701 7.96473L38.2927 24.0981C38.07 24.3523 37.7175 24.4501 37.402 24.3132L22.205 18.7398C21.7597 18.5834 21.537 18.0749 21.6854 17.6056C21.8339 17.1363 22.3163 16.8821 22.7617 17.0581L37.4576 22.4358L52.2835 6.14606C52.5804 5.81361 53.0629 5.7745 53.3969 6.04828L132.035 68.1958L155.452 77.9345C155.879 78.1105 156.102 78.6385 155.935 79.0883C155.787 79.4598 155.471 79.6749 155.137 79.6749Z" fill="white"/>
<path d="M98.9693 84.5638C98.7652 84.5638 98.5611 84.4856 98.3941 84.3292L37.105 24.1176C36.771 23.7852 36.7526 23.2181 37.068 22.8661C37.3834 22.5141 37.9215 22.475 38.2555 22.827L99.5445 83.0385C99.8785 83.371 99.897 83.9381 99.5816 84.2901C99.4146 84.4856 99.192 84.5638 98.9693 84.5638Z" fill="white"/>
<path d="M55.9204 152.011C55.8462 152.011 55.7534 151.991 55.6792 151.933C55.4936 151.796 55.438 151.522 55.5679 151.307L93.7923 91.0172L54.6029 141.392C54.4545 141.588 54.1947 141.607 54.0091 141.451C53.8236 141.294 53.8051 141.021 53.9535 140.825L98.6168 83.3905C98.7652 83.2145 99.0064 83.1754 99.192 83.3123C99.3775 83.4492 99.4146 83.7229 99.2847 83.9185L56.2544 151.796C56.1987 151.933 56.0689 152.011 55.9204 152.011Z" fill="white"/>
<path d="M61.8397 151.639C61.7655 151.639 61.6913 151.62 61.6356 151.581C61.4315 151.463 61.3572 151.19 61.4871 150.975L97.188 86.0501L67.8331 114.914C67.6661 115.09 67.3878 115.071 67.2393 114.895C67.0723 114.719 67.0909 114.425 67.2579 114.269L98.691 83.3709C98.8394 83.2145 99.0806 83.2145 99.2476 83.3514C99.4146 83.4883 99.4518 83.7229 99.359 83.9185L62.2479 151.444C62.1365 151.561 61.9881 151.639 61.8397 151.639Z" fill="white"/>
<path d="M76.6283 96.7665C76.4799 96.7665 76.3315 96.6883 76.2573 96.5318C76.146 96.3167 76.2201 96.043 76.4243 95.9256L96.2045 84.7398L81.0631 88.0447C80.8219 88.1034 80.6178 87.9469 80.5621 87.6927C80.5064 87.4581 80.655 87.2234 80.8962 87.1647L98.895 83.2341C99.0991 83.1949 99.3032 83.3123 99.3775 83.5078C99.4517 83.7229 99.3589 83.9576 99.1734 84.0554L76.8325 96.6883C76.7583 96.747 76.7026 96.7665 76.6283 96.7665Z" fill="white"/>
<path d="M154.487 134.235C154.395 134.235 154.32 134.215 154.246 134.157L116.523 106.544C116.337 106.407 116.282 106.153 116.393 105.958C116.504 105.762 116.745 105.684 116.931 105.782L163.468 128.818C163.673 128.916 163.765 129.19 163.672 129.405C163.58 129.62 163.32 129.718 163.116 129.62L121.125 108.832L154.729 133.433C154.914 133.57 154.97 133.844 154.84 134.059C154.747 134.176 154.617 134.235 154.487 134.235Z" fill="white"/>
<path d="M137.361 143.152C137.212 143.152 137.082 143.074 136.99 142.937L116.374 106.427C116.263 106.231 116.3 105.977 116.486 105.84C116.653 105.703 116.894 105.723 117.042 105.879L146.379 137.422C146.546 137.598 146.546 137.872 146.379 138.048C146.212 138.224 145.952 138.224 145.785 138.048L118.917 109.145L137.732 142.468C137.843 142.683 137.788 142.957 137.583 143.074C137.509 143.133 137.435 143.152 137.361 143.152Z" fill="white"/>
<path d="M122.089 151.092C121.885 151.092 121.7 150.935 121.663 150.701L116.319 106.231C116.3 105.997 116.43 105.801 116.634 105.743C116.857 105.684 117.061 105.821 117.135 106.036L129.976 146.594C130.05 146.829 129.939 147.083 129.716 147.161C129.493 147.239 129.252 147.102 129.178 146.887L117.692 110.612L122.498 150.603C122.535 150.838 122.368 151.072 122.127 151.092C122.127 151.092 122.108 151.092 122.089 151.092Z" fill="white"/>
<path d="M107.375 158.758C107.356 158.758 107.319 158.758 107.301 158.758C107.078 158.719 106.911 158.484 106.967 158.23L116.356 106.095C116.393 105.86 116.56 105.703 116.82 105.743C117.042 105.762 117.209 105.958 117.191 106.192L116.022 154.045C116.022 154.299 115.781 154.514 115.595 154.475C115.354 154.475 115.187 154.26 115.187 154.025L116.226 111.668L107.802 158.406C107.746 158.601 107.579 158.758 107.375 158.758Z" fill="white"/>
<path d="M92.1965 166.658C92.1409 166.658 92.0853 166.639 92.0296 166.619C91.8069 166.521 91.7142 166.267 91.807 166.032L116.374 106.016C116.467 105.801 116.69 105.684 116.913 105.782C117.117 105.86 117.228 106.114 117.172 106.329L99.7301 162.649C99.6559 162.884 99.4147 163.001 99.192 162.942C98.9694 162.864 98.858 162.61 98.9136 162.375L113.498 115.286L92.5863 166.404C92.512 166.541 92.3635 166.658 92.1965 166.658Z" fill="white"/>
<path d="M158.978 127.527C158.829 127.527 158.681 127.449 158.607 127.293L138.808 87.4581C138.697 87.243 138.771 86.9692 138.994 86.8518C139.198 86.7345 139.458 86.8127 139.569 87.0474L157.401 122.912L146.397 83.3514C146.323 83.1167 146.453 82.8625 146.676 82.8038C146.898 82.7452 147.139 82.8625 147.195 83.1167L159.386 126.98C159.442 127.195 159.33 127.43 159.145 127.508C159.089 127.508 159.034 127.527 158.978 127.527Z" fill="white"/>
<path d="M158.978 127.527C158.755 127.527 158.588 127.351 158.551 127.136L153.17 79.6554C153.133 79.4012 153.3 79.1861 153.541 79.1665C153.819 79.1665 153.986 79.3034 154.005 79.5576L159.071 124.281L160.704 115.774C160.741 115.54 160.982 115.364 161.205 115.422C161.427 115.462 161.576 115.696 161.539 115.951L159.386 127.175C159.349 127.371 159.182 127.527 158.978 127.527Z" fill="white"/>
<path d="M158.978 127.527C158.885 127.527 158.774 127.488 158.7 127.41L124.446 95.2216C124.279 95.0652 124.26 94.7718 124.409 94.5958C124.557 94.4198 124.836 94.4003 125.003 94.5567L155.842 123.538L132.035 91.1149C131.887 90.9194 131.924 90.6456 132.109 90.4892C132.295 90.3327 132.555 90.3718 132.703 90.5674L159.312 126.804C159.442 126.98 159.423 127.254 159.275 127.41C159.182 127.488 159.089 127.527 158.978 127.527Z" fill="white"/>
<path d="M158.477 127.058C158.403 127.058 158.329 127.038 158.254 126.98L119.269 100.893C119.065 100.756 119.009 100.482 119.139 100.286C119.269 100.071 119.529 100.013 119.714 100.15L158.7 126.237C158.904 126.374 158.959 126.647 158.83 126.843C158.755 126.98 158.625 127.058 158.477 127.058Z" fill="white"/>
</svg>

<svg width="167" height="176" fill="none" xmlns="http://www.w3.org/2000/svg"><path d="M86.166 170.237a.782.782 0 01-.594-.274.925.925 0 01-.148-1.037l35.2-72.687a.744.744 0 01.371-.392l33.752-17.873c.241-.137.52-.118.761 0a.88.88 0 01.445.645l8.165 50.414c.055.391-.13.782-.464.939L86.537 170.1a.548.548 0 01-.371.137zm35.831-72.903l-33.92 70.028 74.278-38.661-7.868-48.576-32.49 17.209zm-73.109 55.537a.884.884 0 01-.483-.156L4.076 119.823c-.278-.196-.408-.548-.352-.9l17.924-101.18a.885.885 0 01.576-.685c.296-.098.612-.02.853.215l61.883 62.89a.93.93 0 01.167 1.057L49.63 152.383a.82.82 0 01-.557.449.616.616 0 01-.185.039zM5.486 118.688l43.086 31.974 34.736-69.677-60.305-61.287-17.517 98.99z" fill="#fff"/><path d="M121.366 97.549a.81.81 0 01-.408-.118L98.672 84.525 84.2 81.689c-.464-.098-.76-.547-.668-1.036.093-.49.538-.822.983-.704l14.604 2.874c.092.02.167.06.26.098l22.396 12.985c.408.235.557.782.334 1.212a.845.845 0 01-.742.43zm-35.2 72.688a.872.872 0 01-.557-.215l-20.058-18.148-16.626.997c-.501.059-.854-.352-.89-.841-.02-.488.333-.919.797-.938l16.96-1.017a.804.804 0 01.594.215l20.318 18.382c.353.313.39.88.093 1.252a.775.775 0 01-.631.313z" fill="#fff"/><path d="M65.848 151.855c-.13 0-.26-.04-.39-.098a.905.905 0 01-.353-1.193l33.122-67.29a.892.892 0 01.427-.412l32.639-14.666c.427-.196.928.02 1.113.47.186.449-.018.977-.445 1.172l-32.36 14.55-32.974 66.997c-.186.293-.483.47-.78.47z" fill="#fff"/><path d="M155.137 79.675a.897.897 0 01-.315-.059l-23.529-9.778c-.074-.039-.13-.078-.204-.117L52.97 7.965 38.293 24.098a.772.772 0 01-.891.215L22.205 18.74c-.445-.157-.668-.665-.52-1.134.149-.47.631-.724 1.077-.548l14.696 5.378 14.825-16.29a.8.8 0 011.114-.098l78.638 62.148 23.417 9.739c.427.175.65.703.483 1.153-.148.372-.464.587-.798.587z" fill="#fff"/><path d="M98.97 84.564a.839.839 0 01-.576-.235L37.105 24.118a.926.926 0 01-.037-1.252c.315-.352.854-.391 1.188-.039l61.288 60.212c.335.332.353.9.038 1.251a.782.782 0 01-.613.274z" fill="#fff"/><path d="M55.92 152.011a.397.397 0 01-.24-.078.476.476 0 01-.112-.626l38.224-60.29-39.19 50.375a.402.402 0 01-.593.059.455.455 0 01-.056-.626l44.664-57.434a.416.416 0 01.575-.079.45.45 0 01.093.606l-43.03 67.878a.349.349 0 01-.335.215z" fill="#fff"/><path d="M61.84 151.639a.36.36 0 01-.204-.058.439.439 0 01-.149-.606L97.188 86.05l-29.355 28.864a.4.4 0 01-.594-.019.454.454 0 01.019-.626L98.69 83.371a.407.407 0 01.557-.02.468.468 0 01.111.567l-37.111 67.526a.584.584 0 01-.408.195z" fill="#fff"/><path d="M76.628 96.766a.405.405 0 01-.37-.234.461.461 0 01.166-.606l19.78-11.186-15.14 3.305c-.242.058-.446-.098-.502-.352a.442.442 0 01.334-.528l17.999-3.93a.433.433 0 01.483.273.454.454 0 01-.205.547l-22.34 12.633a.3.3 0 01-.205.078zm77.859 37.469a.364.364 0 01-.241-.078l-37.723-27.613a.454.454 0 01-.13-.586c.111-.196.352-.274.538-.176l46.537 23.036c.205.098.297.372.204.587a.419.419 0 01-.556.215l-41.991-20.788 33.604 24.601a.477.477 0 01.111.626.45.45 0 01-.353.176z" fill="#fff"/><path d="M137.361 143.152a.444.444 0 01-.371-.215l-20.616-36.51a.45.45 0 01.112-.587.408.408 0 01.556.039l29.337 31.543a.454.454 0 010 .626.4.4 0 01-.594 0l-26.868-28.903 18.815 33.323c.111.215.056.489-.149.606a.34.34 0 01-.222.078z" fill="#fff"/><path d="M122.089 151.092c-.204 0-.389-.157-.426-.391l-5.344-44.47c-.019-.234.111-.43.315-.488.223-.059.427.078.501.293l12.841 40.558c.074.235-.037.489-.26.567-.223.078-.464-.059-.538-.274l-11.486-36.275 4.806 39.991a.423.423 0 01-.371.489h-.038z" fill="#fff"/><path d="M107.375 158.758h-.074a.436.436 0 01-.334-.528l9.389-52.135c.037-.235.204-.392.464-.352a.412.412 0 01.371.449l-1.169 47.853c0 .254-.241.469-.427.43-.241 0-.408-.215-.408-.45l1.039-42.357-8.424 46.738c-.056.195-.223.352-.427.352z" fill="#fff"/><path d="M92.197 166.658a.507.507 0 01-.167-.039c-.223-.098-.316-.352-.223-.587l24.567-60.016c.093-.215.316-.332.539-.234.204.078.315.332.259.547l-17.442 56.32a.442.442 0 01-.538.293c-.223-.078-.334-.332-.278-.567l14.584-47.089-20.912 51.118c-.074.137-.222.254-.39.254zm66.781-39.131a.405.405 0 01-.371-.234l-19.799-39.835a.45.45 0 01.186-.606c.204-.118.464-.04.575.195l17.832 35.865-11.004-39.56c-.074-.235.056-.49.279-.548a.412.412 0 01.519.313l12.191 43.863c.056.215-.056.45-.241.528-.056 0-.111.019-.167.019z" fill="#fff"/><path d="M158.978 127.527c-.223 0-.39-.176-.427-.391l-5.381-47.48c-.037-.255.13-.47.371-.49.278 0 .445.137.464.392l5.066 44.723 1.633-8.507c.037-.234.278-.41.501-.352.222.04.371.274.334.529l-2.153 11.224a.424.424 0 01-.408.352z" fill="#fff"/><path d="M158.978 127.527a.397.397 0 01-.278-.117l-34.254-32.188a.473.473 0 01-.037-.626.417.417 0 01.594-.04l30.839 28.982-23.807-32.423a.458.458 0 01.074-.626c.186-.156.446-.117.594.078l26.609 36.237c.13.176.111.45-.037.606a.444.444 0 01-.297.117z" fill="#fff"/><path d="M158.477 127.058a.35.35 0 01-.223-.078l-38.985-26.087a.442.442 0 01-.13-.607c.13-.215.39-.273.575-.136l38.986 26.087c.204.137.259.41.13.606a.396.396 0 01-.353.215z" fill="#fff"/></svg>
